src/assets/filled/GalleryEdit.svg

<?xml version="1.0" encoding="UTF-8"?>
<svg width="24" height="24" viewBox="0 0 24 24" xmlns="http://www.w3.org/2000/svg">
 <path d="m20.97 1h-2.94c-1.27 0-2.03 0.76-2.03 2.03v2.94c0 1.27 0.76 2.03 2.03 2.03h2.94c1.27 0 2.03-0.76 2.03-2.03v-2.94c0-1.27-0.76-2.03-2.03-2.03zm-1.96 5.57c-0.03 0.03-0.1 0.07-0.15 0.07l-1.04 0.15c-0.03 0.01-0.07 0.01-0.1 0.01-0.15 0-0.28-0.05-0.37-0.15-0.12-0.12-0.17-0.29-0.14-0.47l0.15-1.04c0.01-0.05 0.04-0.12 0.07-0.15l1.7-1.7c0.03 0.07 0.06 0.15 0.09 0.23 0.04 0.08 0.08 0.15 0.12 0.22 0.03 0.06 0.07 0.12 0.11 0.16 0.04 0.06 0.08 0.12 0.11 0.15 0.02 0.03 0.03 0.04 0.04 0.05 0.09 0.11 0.19 0.21 0.28 0.28 0.02 0.02 0.04 0.04 0.05 0.04 0.05 0.04 0.11 0.09 0.15 0.12 0.06 0.04 0.11 0.08 0.17 0.11 0.07 0.04 0.15 0.08 0.23 0.12s0.16 0.07 0.23 0.09l-1.7 1.71zm2.39-2.39-0.32 0.32c-0.02 0.03-0.05 0.04-0.08 0.04h-0.03c-0.72-0.21-1.29-0.78-1.5-1.5-0.01-0.04 0-0.08 0.03-0.11l0.33-0.33c0.54-0.54 1.05-0.53 1.58 0 0.27 0.27 0.4 0.53 0.4 0.79-0.01 0.26-0.14 0.52-0.41 0.79z"/>
 <path d="m9.0001 10.38c1.3145 0 2.38-1.0655 2.38-2.38s-1.0655-2.38-2.38-2.38c-1.3144 0-2.38 1.0656-2.38 2.38s1.0656 2.38 2.38 2.38z"/>
 <path d="m20.97 8h-0.47v4.61l-0.13-0.11c-0.78-0.67-2.04-0.67-2.82 0l-4.16 3.57c-0.78 0.67-2.04 0.67-2.82 0l-0.34-0.28c-0.71-0.62-1.84-0.68-2.64-0.14l-3.74 2.51c-0.22-0.56-0.35-1.21-0.35-1.97v-8.38c0-2.82 1.49-4.31 4.31-4.31h8.19v-0.47c0-0.4 0.07-0.74 0.23-1.03h-8.42c-3.64 0-5.81 2.17-5.81 5.81v8.38c0 1.09 0.19 2.04 0.56 2.84 0.86 1.9 2.7 2.97 5.25 2.97h8.38c3.64 0 5.81-2.17 5.81-5.81v-8.42c-0.29 0.16-0.63 0.23-1.03 0.23z"/>
</svg>

<svg width="24" height="24" viewBox="0 0 24 24"  xmlns="http://www.w3.org/2000/svg">
<path d="M20.97 1H18.03C16.76 1 16 1.76 16 3.03V5.97C16 7.24 16.76 8 18.03 8H20.97C22.24 8 23 7.24 23 5.97V3.03C23 1.76 22.24 1 20.97 1ZM19.01 6.57C18.98 6.6 18.91 6.64 18.86 6.64L17.82 6.79C17.79 6.8 17.75 6.8 17.72 6.8C17.57 6.8 17.44 6.75 17.35 6.65C17.23 6.53 17.18 6.36 17.21 6.18L17.36 5.14C17.37 5.09 17.4 5.02 17.43 4.99L19.13 3.29C19.16 3.36 19.19 3.44 19.22 3.52C19.26 3.6 19.3 3.67 19.34 3.74C19.37 3.8 19.41 3.86 19.45 3.9C19.49 3.96 19.53 4.02 19.56 4.05C19.58 4.08 19.59 4.09 19.6 4.1C19.69 4.21 19.79 4.31 19.88 4.38C19.9 4.4 19.92 4.42 19.93 4.42C19.98 4.46 20.04 4.51 20.08 4.54C20.14 4.58 20.19 4.62 20.25 4.65C20.32 4.69 20.4 4.73 20.48 4.77C20.56 4.81 20.64 4.84 20.71 4.86L19.01 6.57ZM21.4 4.18L21.08 4.5C21.06 4.53 21.03 4.54 21 4.54C20.99 4.54 20.98 4.54 20.97 4.54C20.25 4.33 19.68 3.76 19.47 3.04C19.46 3 19.47 2.96 19.5 2.93L19.83 2.6C20.37 2.06 20.88 2.07 21.41 2.6C21.68 2.87 21.81 3.13 21.81 3.39C21.8 3.65 21.67 3.91 21.4 4.18Z" />
<path d="M9.00012 10.3801C10.3146 10.3801 11.3801 9.31456 11.3801 8.00012C11.3801 6.68568 10.3146 5.62012 9.00012 5.62012C7.68568 5.62012 6.62012 6.68568 6.62012 8.00012C6.62012 9.31456 7.68568 10.3801 9.00012 10.3801Z" />
<path d="M20.97 8H20.5V12.61L20.37 12.5C19.59 11.83 18.33 11.83 17.55 12.5L13.39 16.07C12.61 16.74 11.35 16.74 10.57 16.07L10.23 15.79C9.52 15.17 8.39 15.11 7.59 15.65L3.85 18.16C3.63 17.6 3.5 16.95 3.5 16.19V7.81C3.5 4.99 4.99 3.5 7.81 3.5H16V3.03C16 2.63 16.07 2.29 16.23 2H7.81C4.17 2 2 4.17 2 7.81V16.19C2 17.28 2.19 18.23 2.56 19.03C3.42 20.93 5.26 22 7.81 22H16.19C19.83 22 22 19.83 22 16.19V7.77C21.71 7.93 21.37 8 20.97 8Z" />
</svg>
